X: 4195
T: The CAR DRIVER
R: Jig
%R: jig
B: James Kerr "Merry Melodies" v.4 p.22 #195
Z: 2016 John Chambers <jc:trillian.mit.edu>
M: 6/8
L: 1/8
K: D
|:\
A2d B2d | ABc def | g2e f2d | efd cdB |\
A2d B2d | ABc def | gab afd | e3 d3 :|
|:\
a2f b2f | agf fed | g2e f2d | efd cdB |\
A2d B2d | ABc def | gab afd | e3 d3 :|

%%sep 1 1 500
%%sep 1 1 500

